X:1
T:Billy Boy
M:4/4
L:1/16
K:C
 B3 c| d3 d d3 d g4 B3 c| d4 d3 B d8| d4 d3 d g4 A3 B| B A3 z4 z4|\
 c3 c| c3 B c3 d c4 d3 c| B3- A B3 c d4 g3 e| d4 B3 dd d3 A3 B| A3 G- G4 z4||\
